sources/design/Outline/f.svg

<svg:svg xmlns:cc="http://creativecommons.org/ns#" xmlns:dc="http://purl.org/dc/elements/1.1/" xmlns:inkscape="http://www.inkscape.org/namespaces/inkscape" xmlns:rdf="http://www.w3.org/1999/02/22-rdf-syntax-ns#" xmlns:sodipodi="http://sodipodi.sourceforge.net/DTD/sodipodi-0.dtd" xmlns:svg="http://www.w3.org/2000/svg" xml:space="preserve" width="1000" height="1000" version="1.1" style="clip-rule:evenodd;fill-rule:evenodd;image-rendering:optimizeQuality;shape-rendering:geometricPrecision;text-rendering:geometricPrecision" viewBox="0 0 1000 1000" id="svg10" sodipodi:docname="f.svg" inkscape:version="1.0.2 (e86c870879, 2021-01-15)"><svg:metadata id="metadata14"><rdf:RDF><cc:Work rdf:about=""><dc:format>image/svg+xml</dc:format><dc:type rdf:resource="http://purl.org/dc/dcmitype/StillImage" /><dc:title /></cc:Work></rdf:RDF></svg:metadata><sodipodi:namedview pagecolor="#ffffff" bordercolor="#666666" borderopacity="1" objecttolerance="10" gridtolerance="10" guidetolerance="10" inkscape:pageopacity="0" inkscape:pageshadow="2" inkscape:window-width="1920" inkscape:window-height="1127" id="namedview12" showgrid="false" inkscape:zoom="2.4010768" inkscape:cx="208.51954" inkscape:cy="105.0641" inkscape:window-x="0" inkscape:window-y="0" inkscape:window-maximized="1" inkscape:current-layer="svg10" showguides="true" inkscape:guide-bbox="true" inkscape:document-rotation="0" inkscape:pagecheckerboard="0"><sodipodi:guide position="0,1000" orientation="0,1" id="guide16" inkscape:label="" inkscape:locked="true" inkscape:color="rgb(0,0,255)" /><sodipodi:guide position="1763.3122,2036.1693" orientation="1000,0" id="guide18" /><sodipodi:guide position="0,200" orientation="0,1" id="guide20" inkscape:label="base" inkscape:locked="true" inkscape:color="rgb(0,0,255)" /><inkscape:grid type="xygrid" id="grid24" originx="-473.37552" originy="-489.69235" /><sodipodi:guide position="0,0" orientation="0,1" id="guide34" inkscape:label="bottom" inkscape:locked="true" inkscape:color="rgb(0,0,255)" /><sodipodi:guide position="225.05109,1693.3186" orientation="0,1" id="guide44" inkscape:label="" inkscape:locked="false" inkscape:color="rgb(0,0,255)" /><sodipodi:guide position="0,900" orientation="0,1" id="guide46" inkscape:label="" inkscape:locked="true" inkscape:color="rgb(0,0,255)" /><sodipodi:guide position="384.68069,563.16366" orientation="1,0" id="guide841" inkscape:label="width" />    <sodipodi:guide position="141.90494,800.03501" orientation="0,-1" id="guide851" /></sodipodi:namedview>
 <svg:defs id="defs4"><inkscape:path-effect effect="fillet_chamfer" id="path-effect854" is_visible="true" lpeversion="1" satellites_param="F,0,0,1,0,0,0,1 @ F,0,0,1,0,0,0,1 @ F,0,0,1,0,0,0,1 @ F,0,0,1,0,0,0,1 @ F,0,0,1,0,0,0,1 @ F,0,0,1,0,13.779765,0,1 @ F,0,0,1,0,16.975321,0,1 @ F,0,0,1,0,0,0,1 @ F,0,0,1,0,0,0,1 @ F,0,0,1,0,0,0,1 @ F,0,0,1,0,0,0,1 @ F,0,0,1,0,0,0,1 @ F,0,0,1,0,0,0,1 @ F,0,0,1,0,0,0,1 @ F,0,0,1,0,0,0,1 @ F,0,0,1,0,15.453898,0,1 @ F,0,0,1,0,22.395339,0,1 @ F,0,0,1,0,0,0,1 @ F,0,0,1,0,0,0,1 @ F,0,0,1,0,0,0,1 @ F,0,0,1,0,0,0,1 | F,0,0,1,0,9.8282065,0,1 @ F,0,0,1,0,14.709399,0,1 @ F,0,0,1,0,0,0,1 @ F,0,0,1,0,11.456164,0,1 @ F,0,0,1,0,11.863194,0,1 @ F,0,0,1,0,0,0,1" unit="px" method="auto" mode="F" radius="0" chamfer_steps="1" flexible="false" use_knot_distance="true" apply_no_radius="true" apply_with_radius="true" only_selected="true" hide_knots="false" /><inkscape:path-effect effect="fillet_chamfer" id="path-effect853" is_visible="true" lpeversion="1" satellites_param="F,0,0,1,0,0,0,1 @ F,0,0,1,0,0,0,1 @ F,0,0,1,0,0,0,1 @ F,0,0,1,0,0,0,1 @ F,0,1,1,0,29.599101,0,1 @ F,0,1,1,0,29.599101,0,1 @ F,0,0,1,0,0,0,1 @ F,0,0,1,0,0,0,1 @ F,0,0,1,0,0,0,1 @ F,0,0,1,0,0,0,1 @ F,0,0,1,0,0,0,1 @ F,0,0,1,0,0,0,1 @ F,0,1,1,0,29.599101,0,1 @ F,0,1,1,0,29.599101,0,1 @ F,0,0,1,0,0,0,1 @ F,0,0,1,0,0,0,1 @ F,0,0,1,0,0,0,1 | F,0,1,1,0,29.599101,0,1 @ F,0,1,1,0,29.599101,0,1 @ F,0,0,1,0,0,0,1 @ F,0,1,1,0,29.599101,0,1 @ F,0,1,1,0,29.599101,0,1 @ F,0,0,1,0,0,0,1" unit="px" method="auto" mode="F" radius="0" chamfer_steps="1" flexible="false" use_knot_distance="true" apply_no_radius="true" apply_with_radius="true" only_selected="true" hide_knots="false" /><inkscape:path-effect effect="fillet_chamfer" id="path-effect852" is_visible="true" lpeversion="1" satellites_param="F,0,0,1,0,0,0,1 @ F,0,0,1,0,0,0,1 @ F,0,0,1,0,0,0,1 @ F,0,1,1,0,17.369058,0,1 @ F,0,1,1,0,17.369058,0,1 @ F,0,0,1,0,0,0,1 @ F,0,0,1,0,0,0,1 @ F,0,0,1,0,0,0,1 @ F,0,0,1,0,0,0,1 @ F,0,0,1,0,0,0,1 @ F,0,0,1,0,0,0,1 @ F,0,1,1,0,17.369058,0,1 @ F,0,1,1,0,0,0,1 @ F,0,1,1,0,0,0,1 @ F,0,1,1,0,0,0,1 @ F,0,0,1,0,0,0,1 @ F,0,0,1,0,0,0,1 | F,0,1,1,0,17.369058,0,1 @ F,0,1,1,0,17.369058,0,1 @ F,0,1,1,0,0,0,1 @ F,0,1,1,0,17.369058,0,1 @ F,0,1,1,0,17.369058,0,1 @ F,0,1,1,0,0,0,1" unit="px" method="auto" mode="F" radius="0" chamfer_steps="1" flexible="false" use_knot_distance="true" apply_no_radius="true" apply_with_radius="true" only_selected="true" hide_knots="false" /><inkscape:path-effect effect="spiro" id="path-effect928" is_visible="true" lpeversion="1" /><inkscape:path-effect effect="spiro" id="path-effect921" is_visible="true" lpeversion="1" /><inkscape:path-effect effect="spiro" id="path-effect917" is_visible="true" lpeversion="1" /><inkscape:path-effect effect="spiro" id="path-effect849" is_visible="true" lpeversion="1" /><inkscape:path-effect effect="spiro" id="path-effect851" is_visible="true" lpeversion="1" />
  <svg:style type="text/css" id="style2">
   
    .fil0 {fill:#EF7F1A;fill-rule:nonzero}
   
  </svg:style>
 <inkscape:path-effect effect="spiro" id="path-effect1214" is_visible="true" lpeversion="1" /><inkscape:path-effect effect="spiro" id="path-effect1195" is_visible="true" lpeversion="1" /><inkscape:path-effect effect="spiro" id="path-effect992" is_visible="true" lpeversion="1" /><inkscape:path-effect effect="spiro" id="path-effect1060" is_visible="true" lpeversion="1" /><inkscape:path-effect effect="spiro" id="path-effect1047" is_visible="true" lpeversion="1" /><inkscape:path-effect effect="spiro" id="path-effect1085" is_visible="true" lpeversion="1" /><inkscape:path-effect effect="spiro" id="path-effect1286" is_visible="true" lpeversion="1" /></svg:defs>
 
<svg:g id="path919"><svg:path style="color:#000000;clip-rule:nonzero;fill:#1a5fb4;fill-rule:nonzero;stroke-linecap:round;stroke-linejoin:round;-inkscape-stroke:none;paint-order:fill stroke markers;shape-rendering:auto" d="M 186.11914,-29.314453 C 177.95891999999998,-29.366683000000002 169.62344,-28.786945 161.19335999999998,-27.367187 C 144.24545999999998,-24.512896 127.18443999999998,-18.265105000000002 112.08007999999998,-7.332031200000003 C 93.193835,6.3385003 80.590816,24.890553 72.244141,43.697266 C 63.968646,62.343596 59.836599,81.029612 56.746094,98.324219 C 44.383901,167.5036 45.972123,236.52473 49.566406,303.57812 C 34.972192,306.2576 20.375904,308.92001 5.7617187,311.48828 C -16.402958,315.38346 -31.84462,337.55607 -27.751953,359.7207 L -11.484375,447.82227 C -7.3822227,470.03827 19.666586,485.87668 41.033203,478.63477 C 47.574567,476.41766 54.157914,474.32691 60.707031,472.13281 C 65.701297,539.66847 70.853061,607.01426 74.84375,674.20508 C 77.090456,712.0326299999999 78.965466,749.88162 80.466797,787.74609 C 81.44272,812.35947 105.79957,832.94647 130.26562,829.73047 L 229.67578000000003,816.66211 C 243.34506000000005,814.86532 257.84459000000004,806.61571 265.00781000000006,792.98633 C 272.1710300000001,779.35695 270.82993000000005,763.1835299999999 264.9199100000001,750.94727 C 250.37673000000007,720.83661 238.10755000000006,689.61932 228.26366000000007,657.66602 C 205.9790500000001,585.33007 196.07215000000008,508.78713 189.40038000000007,430.66602 C 197.03460000000007,428.30169 204.63356000000007,425.82545 212.27733000000006,423.49219 C 250.12988000000007,411.93771 288.10015000000004,400.76443 326.1777200000001,389.97461 C 346.2607900000001,384.28378 357.1505000000001,370.31746999999996 357.70702000000006,349.41211 L 359.25194000000005,291.38867 C 359.56872000000004,279.48906 354.4783800000001,266.22485 344.31054000000006,257.92773 C 334.1426900000001,249.63061 320.16051000000004,247.30734 308.57811000000004,249.98047 C 279.49947000000003,256.6916 250.36939000000004,263.18025 221.19140000000004,269.44531 C 207.15707000000003,272.45875 193.10301000000004,275.37713 179.04686000000004,278.28711 C 177.13749000000004,232.68875999999997 177.57253000000003,188.08377 184.69530000000003,145.14452999999997 C 186.25562000000002,135.73820999999998 188.04488000000003,128.54419 190.28905000000003,123.99999999999997 C 192.30630000000002,119.91531999999997 195.16657000000004,117.81301999999997 195.54101000000003,117.66991999999998 C 195.75672000000003,117.58751999999997 196.91093000000004,117.30578999999997 198.57616000000002,117.43944999999998 C 200.32289000000003,117.57965999999998 202.83177,118.14837999999997 205.82226000000003,119.33202999999997 C 213.73276000000004,122.46305999999997 221.83901000000003,128.53090999999998 228.93944000000002,136.58202999999997 C 236.11952000000002,144.72346 242.52007000000003,155.01210999999998 248.60936,166.65429999999998 C 255.67876,180.17036 261.7645,194.21231999999998 266.79882000000003,208.61522999999997 C 270.50329000000005,219.21350999999996 279.39653000000004,229.87712999999997 292.00780000000003,234.07811999999996 C 304.61908000000005,238.27911999999995 318.68274,234.91099999999994 328.03515000000004,228.24608999999995 L 388.26757000000003,185.32226999999995 C 408.91039,170.61133999999996 415.94632,144.69784999999996 403.21288000000004,121.50780999999995 C 391.27667,99.76968199999995 377.00648000000007,79.33294399999994 360.68944000000005,60.64062499999995 C 322.71467000000007,17.137840999999952 271.04900000000004,-18.734027000000047 209.99218000000005,-27.47265600000005 C 202.26478000000006,-28.57862400000005 194.27935000000005,-29.26221900000005 186.11913000000004,-29.31445300000005 L 186.11914,-29.314453 M 185.75976999999997,30.699219 C 190.84105999999997,30.732319 196.11176999999998,31.151813999999998 201.49218999999997,31.921875 C 244.04664999999997,38.012393 284.6319,64.749488 315.48828,100.09766 C 326.81809999999996,113.07677000000001 336.89257,127.15669 345.70311999999996,141.97852 L 313.96874999999994,164.59375 C 310.22011,155.8669 306.17885,147.26474 301.77539,138.8457 C 294.50273,124.94102 285.82882,110.37774 273.93945,96.896484 C 261.97044,83.324919 246.8006,71.022252 227.9043,63.542969 C 220.71709,60.698223999999996 212.54107000000002,58.366436 203.37695000000002,57.630859 C 194.13134000000002,56.888741 184.13007000000002,57.799875 174.12109000000004,61.625 C 155.33055000000004,68.806168 143.55787000000004,83.120507 136.49023000000005,97.431641 C 129.64953000000006,111.28327 127.30105000000006,124.49222 125.50391000000005,135.32617 C 116.82964000000004,187.61853 116.95258000000004,239.54665 119.47070000000005,290.31641 C 116.01387000000005,290.99466 112.55767000000004,291.67565 109.09961000000006,292.34766 C 105.97968000000006,229.52836000000002 105.28498000000006,167.78043000000002 115.81055000000005,108.87891000000002 C 118.54854000000005,93.55696700000001 121.92071000000004,79.67538800000003 127.08594000000005,68.03710900000002 C 132.17998000000006,56.55921400000001 139.30811000000006,47.028587000000016 147.26172000000005,41.271484000000015 C 153.60996000000006,36.67640500000002 161.99109000000004,33.34271300000002 171.15820000000005,31.798828000000015 C 175.78563000000005,31.019497000000015 180.67847000000006,30.666117000000014 185.75977000000006,30.699219000000014 L 185.75976999999997,30.699219 M 298.63867,313.66405999999995 L 298.05273,335.64453 C 263.53544,345.50223 229.09512,355.62521 194.76172,366.10546999999997 C 191.41923,367.12575999999996 188.0985,368.21601 184.75781,369.24219 C 184.29976000000002,362.79548 183.75993,356.40852 183.30859,349.95117 C 183.04833000000002,346.22745 182.8494,342.56419999999997 182.59375,338.84961 C 199.67333,335.34024999999997 216.74123,331.76791 233.78906,328.10742 C 255.44204000000002,323.45812 277.03937,318.55663 298.63867,313.66406 L 298.63867,313.66405999999995 M 123.23241999999999,350.73241999999993 C 123.31101999999998,351.85646999999994 123.37661999999999,353.0122799999999 123.45508,354.13476999999995 C 124.23146,365.24264999999997 125.14677999999999,376.50798999999995 125.95313,387.6835899999999 C 122.33522,388.83602999999994 118.69968,389.93243999999993 115.08398,391.0917999999999 C 114.20499,378.3070899999999 113.40214999999999,365.5337399999999 112.58594,352.7597699999999 C 116.13311999999999,352.0754899999999 119.6865,351.42320999999987 123.23241999999999,350.7324199999999 L 123.23241999999999,350.73241999999993 M 53.183593999999985,363.8945299999999 C 54.19019799999999,379.4076399999999 55.125779999999985,394.94134999999994 56.212890999999985,410.42772999999994 C 51.946196999999984,411.8449499999999 47.66972299999998,413.2332799999999 43.406249999999986,414.66015999999996 L 34.650390999999985,367.24022999999994 C 40.82987799999999,366.1339699999999 47.007665999999986,365.0204999999999 53.183593999999985,363.8945299999999 M 130.78710999999998,449.04882999999995 C 137.56901,524.6089 147.97438999999997,600.83808 170.92382999999998,675.3320299999999 C 179.78282,704.08836 190.53589,732.2388199999999 202.90039,759.6660199999999 L 139.64257999999998,767.9824199999999 C 138.25862999999998,735.5251599999999 136.66438,703.0761 134.73827999999997,670.6464799999999 C 130.40624999999997,597.7084299999999 124.77070999999998,525.1207399999998 119.45507999999998,452.72069999999985 C 123.23328999999998,451.49886999999984 127.00643999999998,450.26301999999987 130.78710999999998,449.04882999999984 L 130.78710999999998,449.04882999999995" id="path10251" /></svg:g></svg:svg>

<svg:svg xmlns:cc="http://creativecommons.org/ns#" xmlns:dc="http://purl.org/dc/elements/1.1/" xmlns:inkscape="http://www.inkscape.org/namespaces/inkscape" xmlns:rdf="http://www.w3.org/1999/02/22-rdf-syntax-ns#" xmlns:sodipodi="http://sodipodi.sourceforge.net/DTD/sodipodi-0.dtd" xmlns:svg="http://www.w3.org/2000/svg" xml:space="preserve" width="1000" height="1000" version="1.1" style="clip-rule:evenodd;fill-rule:evenodd;image-rendering:optimizeQuality;shape-rendering:geometricPrecision;text-rendering:geometricPrecision" viewBox="0 0 1000 1000" id="svg10" sodipodi:docname="f.svg" inkscape:version="1.0.2 (e86c870879, 2021-01-15)"><svg:metadata id="metadata14"><rdf:RDF><cc:Work rdf:about=""><dc:format>image/svg+xml</dc:format><dc:type rdf:resource="http://purl.org/dc/dcmitype/StillImage" /><dc:title /></cc:Work></rdf:RDF></svg:metadata><sodipodi:namedview pagecolor="#ffffff" bordercolor="#666666" borderopacity="1" objecttolerance="10" gridtolerance="10" guidetolerance="10" inkscape:pageopacity="0" inkscape:pageshadow="2" inkscape:window-width="1920" inkscape:window-height="1127" id="namedview12" showgrid="false" inkscape:zoom="2.4010768" inkscape:cx="208.51954" inkscape:cy="105.0641" inkscape:window-x="0" inkscape:window-y="0" inkscape:window-maximized="1" inkscape:current-layer="svg10" showguides="true" inkscape:guide-bbox="true" inkscape:document-rotation="0" inkscape:pagecheckerboard="0"><sodipodi:guide position="0,1000" orientation="0,1" id="guide16" inkscape:label="" inkscape:locked="true" inkscape:color="rgb(0,0,255)" /><sodipodi:guide position="1763.3122,2036.1693" orientation="1000,0" id="guide18" /><sodipodi:guide position="0,200" orientation="0,1" id="guide20" inkscape:label="base" inkscape:locked="true" inkscape:color="rgb(0,0,255)" /><inkscape:grid type="xygrid" id="grid24" originx="-473.37552" originy="-489.69235" /><sodipodi:guide position="0,0" orientation="0,1" id="guide34" inkscape:label="bottom" inkscape:locked="true" inkscape:color="rgb(0,0,255)" /><sodipodi:guide position="225.05109,1693.3186" orientation="0,1" id="guide44" inkscape:label="" inkscape:locked="false" inkscape:color="rgb(0,0,255)" /><sodipodi:guide position="0,900" orientation="0,1" id="guide46" inkscape:label="" inkscape:locked="true" inkscape:color="rgb(0,0,255)" /><sodipodi:guide position="384.68069,563.16366" orientation="1,0" id="guide841" inkscape:label="width" />    <sodipodi:guide position="141.90494,800.03501" orientation="0,-1" id="guide851" /></sodipodi:namedview>
 <svg:defs id="defs4"><inkscape:path-effect effect="fillet_chamfer" id="path-effect854" is_visible="true" lpeversion="1" satellites_param="F,0,0,1,0,0,0,1 @ F,0,0,1,0,0,0,1 @ F,0,0,1,0,0,0,1 @ F,0,0,1,0,0,0,1 @ F,0,0,1,0,0,0,1 @ F,0,0,1,0,13.779765,0,1 @ F,0,0,1,0,16.975321,0,1 @ F,0,0,1,0,0,0,1 @ F,0,0,1,0,0,0,1 @ F,0,0,1,0,0,0,1 @ F,0,0,1,0,0,0,1 @ F,0,0,1,0,0,0,1 @ F,0,0,1,0,0,0,1 @ F,0,0,1,0,0,0,1 @ F,0,0,1,0,0,0,1 @ F,0,0,1,0,15.453898,0,1 @ F,0,0,1,0,22.395339,0,1 @ F,0,0,1,0,0,0,1 @ F,0,0,1,0,0,0,1 @ F,0,0,1,0,0,0,1 @ F,0,0,1,0,0,0,1 | F,0,0,1,0,9.8282065,0,1 @ F,0,0,1,0,14.709399,0,1 @ F,0,0,1,0,0,0,1 @ F,0,0,1,0,11.456164,0,1 @ F,0,0,1,0,11.863194,0,1 @ F,0,0,1,0,0,0,1" unit="px" method="auto" mode="F" radius="0" chamfer_steps="1" flexible="false" use_knot_distance="true" apply_no_radius="true" apply_with_radius="true" only_selected="true" hide_knots="false" /><inkscape:path-effect effect="fillet_chamfer" id="path-effect853" is_visible="true" lpeversion="1" satellites_param="F,0,0,1,0,0,0,1 @ F,0,0,1,0,0,0,1 @ F,0,0,1,0,0,0,1 @ F,0,0,1,0,0,0,1 @ F,0,1,1,0,29.599101,0,1 @ F,0,1,1,0,29.599101,0,1 @ F,0,0,1,0,0,0,1 @ F,0,0,1,0,0,0,1 @ F,0,0,1,0,0,0,1 @ F,0,0,1,0,0,0,1 @ F,0,0,1,0,0,0,1 @ F,0,0,1,0,0,0,1 @ F,0,1,1,0,29.599101,0,1 @ F,0,1,1,0,29.599101,0,1 @ F,0,0,1,0,0,0,1 @ F,0,0,1,0,0,0,1 @ F,0,0,1,0,0,0,1 | F,0,1,1,0,29.599101,0,1 @ F,0,1,1,0,29.599101,0,1 @ F,0,0,1,0,0,0,1 @ F,0,1,1,0,29.599101,0,1 @ F,0,1,1,0,29.599101,0,1 @ F,0,0,1,0,0,0,1" unit="px" method="auto" mode="F" radius="0" chamfer_steps="1" flexible="false" use_knot_distance="true" apply_no_radius="true" apply_with_radius="true" only_selected="true" hide_knots="false" /><inkscape:path-effect effect="fillet_chamfer" id="path-effect852" is_visible="true" lpeversion="1" satellites_param="F,0,0,1,0,0,0,1 @ F,0,0,1,0,0,0,1 @ F,0,0,1,0,0,0,1 @ F,0,1,1,0,17.369058,0,1 @ F,0,1,1,0,17.369058,0,1 @ F,0,0,1,0,0,0,1 @ F,0,0,1,0,0,0,1 @ F,0,0,1,0,0,0,1 @ F,0,0,1,0,0,0,1 @ F,0,0,1,0,0,0,1 @ F,0,0,1,0,0,0,1 @ F,0,1,1,0,17.369058,0,1 @ F,0,1,1,0,0,0,1 @ F,0,1,1,0,0,0,1 @ F,0,1,1,0,0,0,1 @ F,0,0,1,0,0,0,1 @ F,0,0,1,0,0,0,1 | F,0,1,1,0,17.369058,0,1 @ F,0,1,1,0,17.369058,0,1 @ F,0,1,1,0,0,0,1 @ F,0,1,1,0,17.369058,0,1 @ F,0,1,1,0,17.369058,0,1 @ F,0,1,1,0,0,0,1" unit="px" method="auto" mode="F" radius="0" chamfer_steps="1" flexible="false" use_knot_distance="true" apply_no_radius="true" apply_with_radius="true" only_selected="true" hide_knots="false" /><inkscape:path-effect effect="spiro" id="path-effect928" is_visible="true" lpeversion="1" /><inkscape:path-effect effect="spiro" id="path-effect921" is_visible="true" lpeversion="1" /><inkscape:path-effect effect="spiro" id="path-effect917" is_visible="true" lpeversion="1" /><inkscape:path-effect effect="spiro" id="path-effect849" is_visible="true" lpeversion="1" /><inkscape:path-effect effect="spiro" id="path-effect851" is_visible="true" lpeversion="1" />
  <svg:style type="text/css" id="style2">
   
    .fil0 {fill:#EF7F1A;fill-rule:nonzero}
   
  </svg:style>
 <inkscape:path-effect effect="spiro" id="path-effect1214" is_visible="true" lpeversion="1" /><inkscape:path-effect effect="spiro" id="path-effect1195" is_visible="true" lpeversion="1" /><inkscape:path-effect effect="spiro" id="path-effect992" is_visible="true" lpeversion="1" /><inkscape:path-effect effect="spiro" id="path-effect1060" is_visible="true" lpeversion="1" /><inkscape:path-effect effect="spiro" id="path-effect1047" is_visible="true" lpeversion="1" /><inkscape:path-effect effect="spiro" id="path-effect1085" is_visible="true" lpeversion="1" /><inkscape:path-effect effect="spiro" id="path-effect1286" is_visible="true" lpeversion="1" /></svg:defs>
 
<svg:g id="path919"><svg:path style="color:#000000;clip-rule:nonzero;fill:#1a5fb4;fill-rule:nonzero;stroke-linecap:round;stroke-linejoin:round;-inkscape-stroke:none;shape-rendering:auto" d="m 186.11914,-29.314453 c -8.16022,-0.05223 -16.4957,0.527508 -24.92578,1.947266 -16.9479,2.854291 -34.00892,9.102082 -49.11328,20.0351558 C 93.193835,6.3385003 80.590816,24.890553 72.244141,43.697266 63.968646,62.343596 59.836599,81.029612 56.746094,98.324219 44.383901,167.5036 45.972123,236.52473 49.566406,303.57812 34.972192,306.2576 20.375904,308.92001 5.7617187,311.48828 -16.402958,315.38346 -31.84462,337.55607 -27.751953,359.7207 l 16.267578,88.10157 c 4.1021523,22.216 31.150961,38.05441 52.517578,30.8125 6.541364,-2.21711 13.124711,-4.30786 19.673828,-6.50196 4.994266,67.53566 10.14603,134.88145 14.136719,202.07227 2.246706,37.82755 4.121716,75.67654 5.623047,113.54101 0.975923,24.61338 25.332773,45.20038 49.798823,41.98438 l 99.41016,-13.06836 c 13.66928,-1.79679 28.16881,-10.0464 35.33203,-23.67578 7.16322,-13.62938 5.82212,-29.8028 -0.0879,-42.03906 -14.54318,-30.11066 -26.81236,-61.32795 -36.65625,-93.28125 -22.28461,-72.33595 -32.19151,-148.87889 -38.86328,-227 7.63422,-2.36433 15.23318,-4.84057 22.87695,-7.17383 37.85255,-11.55448 75.82282,-22.72776 113.90039,-33.51758 20.08307,-5.69083 30.97278,-19.65714 31.5293,-40.5625 l 1.54492,-58.02344 c 0.31678,-11.89961 -4.77356,-25.16382 -14.9414,-33.46094 -10.16785,-8.29712 -24.15003,-10.62039 -35.73243,-7.94726 -29.07864,6.71113 -58.20872,13.19978 -87.38671,19.46484 -14.03433,3.01344 -28.08839,5.93182 -42.14454,8.8418 -1.90937,-45.59835 -1.47433,-90.20334 5.64844,-133.14258 1.56032,-9.40632 3.34958,-16.60034 5.59375,-21.14453 2.01725,-4.08468 4.87752,-6.18698 5.25196,-6.33008 0.21571,-0.0824 1.36992,-0.36413 3.03515,-0.23047 1.74673,0.14021 4.25561,0.70893 7.2461,1.89258 7.9105,3.13103 16.01675,9.19888 23.11718,17.25 7.18008,8.14143 13.58063,18.43008 19.66992,30.07227 7.0694,13.51606 13.15514,27.55802 18.18946,41.96093 3.70447,10.59828 12.59771,21.2619 25.20898,25.46289 12.61128,4.201 26.67494,0.83288 36.02735,-5.83203 l 60.23242,-42.92382 c 20.64282,-14.71093 27.67875,-40.62442 14.94531,-63.81446 -11.93621,-21.738128 -26.2064,-42.174866 -42.52344,-60.867185 -37.97477,-43.502784 -89.64044,-79.374652 -150.69726,-88.113281 -7.7274,-1.105968 -15.71283,-1.789563 -23.87305,-1.841797 z m -0.35937,60.013672 c 5.08129,0.0331 10.352,0.452595 15.73242,1.222656 42.55446,6.090518 83.13971,32.827613 113.99609,68.175785 11.32982,12.97911 21.40429,27.05903 30.21484,41.88086 l -31.73437,22.61523 C 310.22011,155.8669 306.17885,147.26474 301.77539,138.8457 294.50273,124.94102 285.82882,110.37774 273.93945,96.896484 261.97044,83.324919 246.8006,71.022252 227.9043,63.542969 c -7.18721,-2.844745 -15.36323,-5.176533 -24.52735,-5.91211 -9.24561,-0.742118 -19.24688,0.169016 -29.25586,3.994141 -18.79054,7.181168 -30.56322,21.495507 -37.63086,35.806641 -6.8407,13.851629 -9.18918,27.060579 -10.98632,37.894529 -8.67427,52.29236 -8.55133,104.22048 -6.03321,154.99024 -3.45683,0.67825 -6.91303,1.35924 -10.37109,2.03125 -3.11993,-62.8193 -3.81463,-124.56723 6.71094,-183.46875 2.73799,-15.321943 6.11016,-29.203522 11.27539,-40.841801 5.09404,-11.477895 12.22217,-21.008522 20.17578,-26.765625 6.34824,-4.595079 14.72937,-7.928771 23.89648,-9.472656 4.62743,-0.779331 9.52027,-1.132711 14.60157,-1.099609 z m 112.8789,282.964841 -0.58594,21.98047 c -34.51729,9.8577 -68.95761,19.98068 -103.29101,30.46094 -3.34249,1.02029 -6.66322,2.11054 -10.00391,3.13672 -0.45805,-6.44671 -0.99788,-12.83367 -1.44922,-19.29102 -0.26026,-3.72372 -0.45919,-7.38697 -0.71484,-11.10156 17.07958,-3.50936 34.14748,-7.0817 51.19531,-10.74219 21.65298,-4.6493 43.25031,-9.55079 64.84961,-14.44336 z m -175.40625,37.06836 c 0.0786,1.12405 0.1442,2.27986 0.22266,3.40235 0.77638,11.10788 1.6917,22.37322 2.49805,33.54882 -3.61791,1.15244 -7.25345,2.24885 -10.86915,3.40821 -0.87899,-12.78471 -1.68183,-25.55806 -2.49804,-38.33203 3.54718,-0.68428 7.10056,-1.33656 10.64648,-2.02735 z m -70.048826,13.16211 c 1.006604,15.51311 1.942186,31.04682 3.029297,46.5332 -4.266694,1.41722 -8.543168,2.80555 -12.806641,4.23243 l -8.755859,-47.41993 c 6.179487,-1.10626 12.357275,-2.21973 18.533203,-3.3457 z m 77.603516,85.1543 c 6.7819,75.56007 17.18728,151.78925 40.13672,226.2832 8.85899,28.75633 19.61206,56.90679 31.97656,84.33399 l -63.25781,8.3164 c -1.38395,-32.45726 -2.9782,-64.90632 -4.9043,-97.33594 -4.33203,-72.93805 -9.96757,-145.52574 -15.2832,-217.92578 3.77821,-1.22183 7.55136,-2.45768 11.33203,-3.67187 z" id="path10233" /></svg:g></svg:svg>
